X:279
T:Old Joe Clark
S:John Greig, Edinburgh
Z:Nigel Gatherer <gatherer@argonet.co.uk>
M:4/4
L:1/8
K:A
e2 f2 =g2 f2|efed c4|e2 f2 =g2 f2|e4-e4|
e2 f2 =g2 f2|efed c4|cBAc BA G2|A4-A4:|
A2 AB cBcd|efed cB A2|A2 AB cB A2|=G4-G4|
A2 AB cBcd|efed cB A2|cBAc BA G2|A4-A4:|
<end>
<start>
